images/icons/price.svg

<svg width="101" height="104" viewBox="0 0 101 104" fill="none" xmlns="http://www.w3.org/2000/svg">
<path d="M35.9735 51.0948C37.2925 51.8573 37.7662 53.5063 37.0327 54.7783C36.666 55.4143 36.9031 56.239 37.5623 56.6201C38.2216 57.0011 39.0534 56.7944 39.4202 56.1584C40.6196 54.0595 40.201 51.3837 38.4011 49.6451L39.1595 48.3298C39.5263 47.6937 39.2892 46.8691 38.6299 46.488C37.9707 46.1069 37.1388 46.3136 36.7721 46.9496L36.0136 48.265C33.3549 47.4981 30.5946 48.778 29.5724 51.2516C28.5502 53.7251 29.5857 56.6196 31.9888 58.005C33.3078 58.7675 33.7815 60.4164 33.048 61.6885C32.3145 62.9605 30.6514 63.3743 29.3323 62.6118C28.0139 61.8496 27.5396 60.2003 28.2731 58.9283C28.6399 58.2922 28.4027 57.4676 27.7435 57.0865C27.0842 56.7054 26.2524 56.9121 25.8856 57.5482C24.6862 59.6471 25.1054 62.3232 26.9047 64.0615L26.1463 65.3768C25.7795 66.0128 26.0167 66.8375 26.6759 67.2186C27.3351 67.5996 28.167 67.3929 28.5337 66.7569L29.2903 65.445C31.9533 66.2218 34.7234 64.9424 35.7479 62.4634C36.7728 59.9839 35.7301 57.083 33.317 55.7016C31.9985 54.9394 31.5243 53.2901 32.2578 52.0181C32.9913 50.746 34.655 50.3326 35.9735 51.0948Z" fill="#03BCFC"/>
<path d="M46.3587 41.388L39.188 37.2429C38.528 36.8613 37.6841 37.0875 37.3033 37.748C36.9224 38.4085 37.1487 39.2533 37.8087 39.6349L44.9794 43.78C45.6394 44.1616 46.4833 43.9354 46.8642 43.2749C47.2451 42.6144 47.0187 41.7695 46.3587 41.388Z" fill="#03BCFC"/>
<path d="M27.508 74.0785L20.3373 69.9334C19.6773 69.5519 18.8334 69.7781 18.4526 70.4385C18.0717 71.099 18.298 71.9439 18.958 72.3254L26.1287 76.4705C26.7887 76.852 27.6326 76.6259 28.0135 75.9654C28.3944 75.3049 28.168 74.4601 27.508 74.0785Z" fill="#03BCFC"/>
<path d="M73.7013 78.2706L73.781 39.1243C75.4163 38.6885 76.9986 38.0684 78.4965 37.2755C82.2122 35.2611 84.2631 32.4959 84.2691 29.4909C84.2821 23.5094 76.1219 18.8405 65.692 18.8613C64.302 18.8729 62.9141 18.9731 61.5361 19.161L61.2193 17.5658C60.8399 15.6666 59.6664 14.0248 57.996 13.0577C56.325 12.0932 54.3182 11.8966 52.4857 12.5172L31.6645 19.5773C30.1081 20.1046 28.7944 21.184 27.9714 22.6125L6.99987 58.9812C3.69451 64.7289 5.63663 72.0581 11.3423 75.3647L27.4303 84.6646C33.1431 87.9587 40.4541 85.9784 43.7724 80.2382L64.7439 43.8694C65.3839 42.7544 65.6932 41.4798 65.6363 40.1967L65.6453 40.2019C67.4803 40.1969 69.312 40.0356 71.1204 39.7201L71.0444 78.2763C71.0355 83.4322 66.8633 87.6213 61.7256 87.6319L43.1268 87.6709C42.311 87.669 41.4987 87.5584 40.7124 87.3418C40.0044 87.1515 39.2739 87.5737 39.0814 88.2851C38.8883 88.9962 39.3059 89.7276 40.0145 89.9182C41.0247 90.1928 42.0677 90.3328 43.1158 90.3343L61.7145 90.2953C68.3199 90.2848 73.6878 84.9006 73.7013 78.2706ZM41.4741 78.9096C38.893 83.3742 33.2071 84.9142 28.7636 82.3524L12.6756 73.0525C8.2385 70.4808 6.72709 64.7802 9.29815 60.3098L30.2697 23.9411C30.7683 23.0762 31.5634 22.4227 32.5064 22.1029L53.3266 15.0446C54.4358 14.6675 55.6507 14.7857 56.6627 15.3699C57.6741 15.9553 58.3843 16.9499 58.6128 18.1003L62.4519 37.3571C59.1888 37.0921 56.0285 36.0984 53.2029 34.4492C53.4221 34.1898 53.6211 33.9135 53.798 33.6236C55.6347 30.4305 54.5552 26.3592 51.3855 24.5216C51.257 24.4526 51.1178 24.406 50.9736 24.3836C50.4359 23.9772 49.6772 24.0474 49.218 24.5452C47.8979 25.8888 47.1316 27.6821 47.0727 29.5643C47.1027 31.2782 47.7381 32.9228 48.8665 34.2043C47.3262 34.5467 45.7337 33.9416 44.8097 32.6638C43.8854 31.3851 43.8054 29.6762 44.6048 28.3093C44.973 27.6709 44.757 26.8558 44.1223 26.4889C43.4877 26.1221 42.6747 26.3423 42.3066 26.9808C40.8259 29.542 41.2004 32.7692 43.2273 34.9058C45.2536 37.042 48.4464 37.5758 51.067 36.2162C51.4916 36.5256 51.9315 36.8138 52.3855 37.0785C55.6497 38.8352 59.2586 39.8578 62.962 40.0756C63.0532 40.9306 62.8723 41.7932 62.4456 42.5409L41.4741 78.9096ZM51.4997 32.295C51.3975 32.4618 51.2834 32.6208 51.1579 32.771C50.2969 31.9196 49.787 30.7735 49.7302 29.559C49.7509 28.7032 50.0272 27.8724 50.5229 27.1737C52.0671 28.3983 52.4825 30.575 51.4997 32.295ZM65.6555 37.5245C65.5023 37.5255 65.354 37.5166 65.2016 37.515L62.0647 21.7772C63.2653 21.623 64.4739 21.5419 65.6833 21.5335C74.326 21.5137 81.6197 25.1632 81.6059 29.5049C81.6032 31.4844 80.0499 33.4151 77.2351 34.9401C76.1322 35.5256 74.9755 36.0018 73.7811 36.3606L73.7813 36.3329C73.7859 34.6864 73.1897 33.0968 72.1065 31.8641L68.489 27.7324C67.9993 27.2062 67.1796 27.1682 66.6398 27.6464C66.099 28.1249 66.0345 28.9464 66.494 29.5002L70.1161 33.624C70.7711 34.3707 71.1315 35.3325 71.1297 36.3295L71.1286 37.0085C69.3229 37.3519 67.4902 37.5253 65.6535 37.5279L65.6555 37.5245Z" fill="#03BCFC"/>
<path d="M53.4143 69.121C53.4047 69.8772 54.0009 70.4834 54.7456 70.4734L65.5348 70.3354C66.0187 70.3326 66.4705 70.0661 66.719 69.6378C66.9669 69.2092 66.9735 68.6846 66.7361 68.2626C66.4981 67.8402 66.0533 67.5854 65.5692 67.595L54.78 67.733C54.0353 67.743 53.4237 68.3638 53.4143 69.121Z" fill="#03BCFC"/>
<path d="M50.859 77.2484C50.8741 77.9838 51.4976 78.5941 52.2513 78.6101L65.8907 78.902C66.6441 78.9186 67.2421 78.3352 67.2259 77.5992C67.2102 76.8635 66.5864 76.2537 65.833 76.2371L52.1936 75.9453C51.4405 75.9296 50.8428 76.5124 50.859 77.2484Z" fill="#03BCFC"/>
<path d="M59.8108 64.0475C60.015 64.1656 60.2479 64.2262 60.4859 64.2238L65.9005 64.1673C66.3862 64.1657 66.8391 63.9 67.0875 63.4718C67.335 63.0439 67.3408 62.5182 67.1015 62.0951C66.8622 61.6721 66.4145 61.4156 65.9286 61.4241L60.514 61.4807C59.901 61.4873 59.3609 61.9095 59.196 62.5112C59.0315 63.1123 59.2833 63.7426 59.8108 64.0475Z" fill="#03BCFC"/>
</svg>

<svg width="101" height="104" fill="none" xmlns="http://www.w3.org/2000/svg"><path d="M35.974 51.095c1.319.762 1.792 2.411 1.059 3.683-.367.636-.13 1.461.53 1.842.659.381 1.49.174 1.857-.462 1.2-2.099.781-4.774-1.019-6.513l.758-1.315c.367-.636.13-1.46-.53-1.842-.658-.381-1.49-.174-1.857.462l-.758 1.315c-2.66-.767-5.42.513-6.442 2.987-1.022 2.473.014 5.368 2.417 6.753 1.319.762 1.793 2.411 1.059 3.683-.733 1.273-2.397 1.686-3.716.924-1.318-.762-1.792-2.412-1.059-3.684.367-.636.13-1.46-.53-1.841-.659-.382-1.49-.175-1.857.461-1.2 2.1-.78 4.775 1.019 6.513l-.759 1.316c-.367.636-.13 1.46.53 1.842.66.38 1.491.174 1.858-.462l.756-1.312c2.663.777 5.433-.503 6.458-2.982 1.025-2.48-.018-5.38-2.431-6.761-1.319-.763-1.793-2.412-1.06-3.684.734-1.272 2.398-1.685 3.717-.923zm10.385-9.707l-7.171-4.145a1.379 1.379 0 00-1.885.505c-.38.66-.154 1.505.506 1.887l7.17 4.145c.66.382 1.504.155 1.885-.505s.155-1.505-.505-1.887zM27.508 74.079l-7.17-4.146a1.379 1.379 0 00-1.885.505 1.382 1.382 0 00.505 1.887l7.17 4.145a1.38 1.38 0 101.38-2.391z" fill="#03BCFC"/><path d="M73.701 78.27l.08-39.146a22.422 22.422 0 004.715-1.849c3.716-2.014 5.767-4.78 5.773-7.784.013-5.982-8.147-10.65-18.577-10.63a32.84 32.84 0 00-4.156.3l-.317-1.595a6.728 6.728 0 00-3.223-4.508 6.712 6.712 0 00-5.51-.54l-20.821 7.06a6.774 6.774 0 00-3.694 3.035L7 58.98c-3.305 5.748-1.363 13.077 4.342 16.384l16.088 9.3c5.713 3.294 13.024 1.313 16.342-4.427L64.744 43.87c.64-1.115.95-2.39.892-3.672l.01.005a32.37 32.37 0 005.474-.482l-.076 38.556c-.008 5.156-4.18 9.345-9.318 9.356l-18.6.039a9.173 9.173 0 01-2.414-.33 1.334 1.334 0 00-1.63.944 1.328 1.328 0 00.932 1.633 11.89 11.89 0 003.102.416l18.599-.039c6.605-.01 11.973-5.394 11.986-12.024zm-32.227.64c-2.581 4.464-8.267 6.004-12.71 3.442l-16.088-9.3C8.238 70.481 6.727 64.78 9.298 60.31L30.27 23.94a4.105 4.105 0 012.236-1.838l20.82-7.058a4.057 4.057 0 013.337.325 4.068 4.068 0 011.95 2.73l3.839 19.257a21.856 21.856 0 01-9.25-2.908c.22-.26.42-.535.596-.825 1.837-3.194.757-7.265-2.413-9.102a1.288 1.288 0 00-.411-.138 1.312 1.312 0 00-1.756.161 7.499 7.499 0 00-2.145 5.02 7.21 7.21 0 001.794 4.64 3.946 3.946 0 01-4.057-1.541 3.994 3.994 0 01-.205-4.355 1.333 1.333 0 00-.483-1.82 1.33 1.33 0 00-1.815.492 6.668 6.668 0 00.92 7.925 6.604 6.604 0 007.84 1.31c.425.31.864.598 1.319.862a25.47 25.47 0 0010.576 2.998 4.098 4.098 0 01-.516 2.465L41.474 78.91zM51.5 32.295a4.007 4.007 0 01-.342.476 4.833 4.833 0 01-1.428-3.212c.02-.856.297-1.687.793-2.385a4.001 4.001 0 01.977 5.121zm14.156 5.23c-.154 0-.302-.008-.454-.01l-3.137-15.738c1.2-.154 2.409-.235 3.618-.244 8.643-.02 15.937 3.63 15.923 7.972-.003 1.98-1.556 3.91-4.37 5.435a19.064 19.064 0 01-3.455 1.42v-.027a6.741 6.741 0 00-1.675-4.469l-3.617-4.132a1.324 1.324 0 00-1.85-.086c-.54.479-.605 1.3-.145 1.854l3.622 4.124a4.09 4.09 0 011.014 2.706l-.001.678a29.527 29.527 0 01-5.476.52l.002-.003z" fill="#03BCFC"/><path d="M53.414 69.121a1.318 1.318 0 001.332 1.352l10.789-.138a1.384 1.384 0 001.184-.697 1.39 1.39 0 00.017-1.375 1.305 1.305 0 00-1.167-.668l-10.789.138c-.745.01-1.356.63-1.366 1.388zm-2.555 8.127c.015.736.639 1.346 1.392 1.362l13.64.292c.753.017 1.351-.567 1.335-1.303-.016-.736-.64-1.345-1.393-1.362l-13.64-.292c-.752-.015-1.35.567-1.334 1.303zm8.951-13.201c.205.119.438.18.676.177l5.414-.057a1.384 1.384 0 001.188-.695 1.39 1.39 0 00.014-1.377 1.318 1.318 0 00-1.173-.67l-5.415.056a1.392 1.392 0 00-1.318 1.03 1.354 1.354 0 00.615 1.536z" fill="#03BCFC"/></svg>
